!!!OTL-incipit: MEI MUTTER MAG MI NET, UND KEIN SCHATZ HAN I NET
!!!ARE: Europa, Mitteleuropa, Deutschland, Schwaben
!!!SCT: Z0110
!!!YEM: Copyright 1995, estate of Helmut Schaffrath.
**kern	**text
*ICvox	*
*M3/8	*
*k[f#]	*
*G:	*
!LO:TX:a:t=Schwäbiſch.	!
{8b/	Mei
8b/	Mut-
8b/	-ter
=1	=1
8.b/	mag
16a	mi
8a	net,
=2	=2
8cc	und
8cc	kein
8cc	Schatʒ
=3	=3
8.cc	han
16b	i
8b}	net,
=4	=4
{8dd	ei
(16eeL	war-
16ddJ)	.
(16ccL	-um
16bJ)	.
=5	=5
8.ee	ſtirb
16ee	i
8dd	net,
=6	=6
8b/	was
8b/	thu
(16ddL	i
16ccJ)	.
=7	=7
4a	do?
8r}	.
=8	=8
{8a	ei
(16aL	war-
16eeJ)	.
(16ddL	-um
16ccJ)	.
=9	=9
8.cc	ſtirb
16b	i
8b	net,
=10	=10
8ee	ei
8gg	war-
(16ff#L	-um
16eeJ)	.
=11	=11
8.dd	ſtirb
16cc	i
8b}	net,
=12	=12
{8g	was
8f#	thu
(16aL	i
16ccJ)	.
=13	=13
4b/	do?
8r	.
=14	=14
8dd	was
(16ddL	thu
16eeJ)	.
(16ddL	i
16ccJ)	.
=15	=15
4b/	do?
8r}	.
==	==
!!!AGN: Sagen - Lied, Romanze, Tod
!!!ONB: ESAC (Essen Associative Code) Database: ZUCCAL
!!!AMT: simple triple
!!!AIN: vox
!!!EED: Helmut Schaffrath
!!!EEV: 1.0
!!!GTL: I. Ernste Romanzen und Sagen.
!!!URL-scan: https://www.digitale-sammlungen.de/de/view/bsb11160571?page=211
!!!ENC: Anna Maria Matuszewska
!!!EEV: 2025/01/27
*-	*-
